X:004
T: Galloway Tom / Boughleen Bue
T: Galway Tom / Buachaill\'in Bu\'i
N: O'Farrell's Pocket Companion v.1 (Sky ed. p.13-14)
N: "Irish" (Little Yellow Boy)
M: 6/8
R: jig
Q: 320
L: 1/8
K: D
A/B/| ded fdd| edd fdB| ded fdd| edB B2A|
ded fdd| edd fdB| dfd e/f/ge| fdB B2 :|
d| AFA A2B| AGF A2B| AFA Dfe| fdB B2d |
AGF A2B| AFA A2g | fed gbg |fdB B2 :|
A|def a2f|a/b/af a2f|def abg|fdB B2A|
def a3|baf a2g|fdd gfe|fdB B2 :|
d|AFF dFF|AFA A2B|AFF dfe|fdB B2d|
AFF dFF |AFF A2g|fed gbg|fdB B2 :|
A|def aff|aff a2f|def a/b/ag|fdB B2A|
def aff|bff a2g| fdd gfe| fdB B2 :|
d|AFF DFF | DFF A2B| AFF Dfe|fdB B2d|
AFF DFF| dFF AFA| BAB dfe| fdB B2 :|
